azure-patterns/svg-security-alt.svg

<svg xmlns="http://www.w3.org/2000/svg" viewBox="0 0 49 49">
                                
                            
  <path d="M24.3725 0.86499C19.362 3.74499 13.8714 5.84183 8.06934 7.01236V35.8376L24.2967 48.6292L40.7935 35.8713V7.01236C34.9914 5.85025 29.5093 3.74499 24.4904 0.86499H24.3725Z" fill="#0078D4"></path>
  <path d="M30.612 19.4418C30.612 15.9723 27.7742 13.126 24.2963 13.126C21.1805 13.126 18.5699 15.4165 18.0731 18.406H20.6584C20.8352 17.7912 21.1636 17.2355 21.6268 16.7723C22.3426 16.0565 23.2942 15.6607 24.2963 15.6607C25.2984 15.6607 26.2499 16.0565 26.9657 16.7723C27.6815 17.4881 28.0773 18.4397 28.0773 19.4418C28.0773 19.6439 28.0773 20.2165 28.0773 20.966H17.9805V33.6312H30.6036V21.7744C30.612 20.6376 30.612 19.7112 30.612 19.4418Z" fill="#50E6FF"></path>
  <path d="M24.2626 28.8144C25.1091 28.8144 25.7952 28.1282 25.7952 27.2818C25.7952 26.4353 25.1091 25.7491 24.2626 25.7491C23.4162 25.7491 22.73 26.4353 22.73 27.2818C22.73 28.1282 23.4162 28.8144 24.2626 28.8144Z" fill="#0078D4"></path>
</svg>

<svg xmlns="http://www.w3.org/2000/svg" viewBox="0 0 49 49"><path d="M24.372.865A54.211 54.211 0 0 1 8.07 7.012v28.826l16.228 12.791 16.497-12.758V7.012A54.071 54.071 0 0 1 24.49.865h-.117z" fill="#0078D4"/><path d="M30.612 19.442c0-3.47-2.838-6.316-6.316-6.316-3.116 0-5.726 2.29-6.223 5.28h2.585c.177-.615.506-1.17.969-1.634a3.76 3.76 0 0 1 5.339 0 3.76 3.76 0 0 1 1.111 2.67v1.524H17.98v12.665h12.624V21.774c.008-1.136.008-2.063.008-2.332z" fill="#50E6FF"/><path d="M24.263 28.814a1.533 1.533 0 1 0 0-3.065 1.533 1.533 0 0 0 0 3.065z" fill="#0078D4"/></svg>
